Yosa-Max/actions/22x22/amarok_clock.svg

<?xml version="1.0" encoding="UTF-8"?>
<svg id="svg4" version="1.1" viewBox="0 0 22 22" xmlns="http://www.w3.org/2000/svg">
 <defs id="defs8">
  <style id="current-color-scheme" type="text/css">.ColorScheme-Text {
        color:#4d4d4d;
      }</style>
  <style id="current-color-scheme-5" type="text/css">.ColorScheme-Text {
        color:#4d4d4d;
      }</style>
 </defs>
 <path id="path984" d="m11 3a8.0000019 8 0 0 0-8 8 8.0000019 8 0 0 0 8 8 8.0000019 8 0 0 0 8-8 8.0000019 8 0 0 0-8-8zm0 2a6.0000019 6.0000005 0 0 1 6 6 6.0000019 6.0000005 0 0 1-6 6 6.0000019 6.0000005 0 0 1-6-6 6.0000019 6.0000005 0 0 1 6-6zm-1 2v4h-3v2h5v-1-5h-2z" style="fill:#4d4d4d"/>
</svg>

<?xml version="1.0" encoding="UTF-8" standalone="no"?>
<svg
   xmlns:dc="http://purl.org/dc/elements/1.1/"
   xmlns:cc="http://creativecommons.org/ns#"
   xmlns:rdf="http://www.w3.org/1999/02/22-rdf-syntax-ns#"
   xmlns:svg="http://www.w3.org/2000/svg"
   xmlns="http://www.w3.org/2000/svg"
   id="svg4"
   version="1.1"
   viewBox="0 0 22 22">
  <metadata
     id="metadata10">
    <rdf:RDF>
      <cc:Work
         rdf:about="">
        <dc:format>image/svg+xml</dc:format>
        <dc:type
           rdf:resource="http://purl.org/dc/dcmitype/StillImage" />
        <dc:title></dc:title>
      </cc:Work>
    </rdf:RDF>
  </metadata>
  <defs
     id="defs8">
    <style
       type="text/css"
       id="current-color-scheme">
      .ColorScheme-Text {
        color:#4d4d4d;
      }
      </style>
    <style
       id="current-color-scheme-5"
       type="text/css">
      .ColorScheme-Text {
        color:#4d4d4d;
      }
      </style>
  </defs>
  <path
     id="path984"
     d="M 11 3 A 8.0000019 8 0 0 0 3 11 A 8.0000019 8 0 0 0 11 19 A 8.0000019 8 0 0 0 19 11 A 8.0000019 8 0 0 0 11 3 z M 11 5 A 6.0000019 6.0000005 0 0 1 17 11 A 6.0000019 6.0000005 0 0 1 11 17 A 6.0000019 6.0000005 0 0 1 5 11 A 6.0000019 6.0000005 0 0 1 11 5 z M 10 7 L 10 11 L 7 11 L 7 13 L 12 13 L 12 12 L 12 7 L 10 7 z "
     style="opacity:1;fill:#4d4d4d;fill-opacity:1;stroke:none;stroke-width:0.1;stroke-linecap:round;stroke-linejoin:miter;stroke-miterlimit:4;stroke-dasharray:none;stroke-opacity:0.29943501" />
</svg>
